public/LinkedIn.svg

<svg width="24" height="24" viewBox="0 0 24 24" fill="none" xmlns="http://www.w3.org/2000/svg">
<g clip-path="url(#clip0_12_47)">
<path fill-rule="evenodd" clip-rule="evenodd" d="M21.0678 0C22.6861 0 24 1.31391 24 2.93222V21.0678C24 22.6861 22.6861 24 21.0678 24H2.93222C1.31391 24 0 22.6861 0 21.0678V2.93222C0 1.31391 1.31386 0 2.93222 0L21.0678 0ZM7.52161 19.8412V9.26067H4.00411V19.8412H7.52161ZM20.2031 19.8412V13.7737C20.2031 10.5237 18.4679 9.01186 16.154 9.01186C14.2882 9.01186 13.4524 10.038 12.9845 10.7587V9.26067H9.46786C9.5145 10.2535 9.46786 19.8412 9.46786 19.8412H12.9844V13.9323C12.9844 13.616 13.0072 13.2998 13.1004 13.0738C13.3542 12.4421 13.9332 11.7878 14.9048 11.7878C16.1768 11.7878 16.6864 12.7584 16.6864 14.1802V19.8412H20.2031ZM5.78662 4.15884C4.58316 4.15884 3.79688 4.95005 3.79688 5.98706C3.79688 7.00228 4.55925 7.81528 5.74008 7.81528H5.76277C6.98925 7.81528 7.7527 7.00228 7.7527 5.98706C7.72997 4.9515 6.99141 4.16109 5.78662 4.15884Z" fill="#F2F2F7"/>
</g>
<defs>
<clipPath id="clip0_12_47">
<rect width="24" height="24" fill="white"/>
</clipPath>
</defs>
</svg>

<svg width="24" height="24" fill="none" xmlns="http://www.w3.org/2000/svg"><g clip-path="url(#a)"><path fill-rule="evenodd" clip-rule="evenodd" d="M21.068 0A2.934 2.934 0 0 1 24 2.932v18.136A2.934 2.934 0 0 1 21.068 24H2.932A2.934 2.934 0 0 1 0 21.068V2.932A2.934 2.934 0 0 1 2.932 0h18.136ZM7.522 19.841V9.261H4.004v10.58h3.518Zm12.681 0v-6.067c0-3.25-1.735-4.762-4.049-4.762-1.866 0-2.702 1.026-3.17 1.747V9.26H9.469c.046.993 0 10.58 0 10.58h3.516v-5.909c0-.316.023-.632.116-.858.254-.632.833-1.286 1.805-1.286 1.272 0 1.781.97 1.781 2.392v5.661h3.517ZM5.787 4.16c-1.204 0-1.99.791-1.99 1.828 0 1.015.762 1.828 1.943 1.828h.023c1.226 0 1.99-.813 1.99-1.828C7.73 4.952 6.99 4.161 5.787 4.16Z" fill="#F2F2F7"/></g><defs><clipPath id="a"><path fill="#fff" d="M0 0h24v24H0z"/></clipPath></defs></svg>
